X:1
T:The Lively Jig
M:6/8
L:1/8
C:Pat Simmonds
R:jig
P:2
N:Written for my wife Kelly Hood from Lively, Ontario, in the summer of 1999.
K:G
aba aef| ~g3 efg| aba aef| gfe deg| aba aef| ~g3 efg| agf gfe|1 ~d3 deg:||
2 ~d3 d2c||:BGB dcB|~c3 ABc|BGB dcB|cAA ABc| BGB dcB|~c3 ABc|BGB def|1~g3 g3:||2 ~g3 efg||